!!!OTL: 554a. Trost eines habelosen Maedchens.
!!!ARE: Europa, Mitteleuropa, Deutschland, Hessen, Darmstadt
!!!SCT: E0554
!!!TXL: @@DE
!!!YEM: Copyright 1995, estate of Helmut Schaffrath.
**kern	**text
*ICvox	*
*M4/4	*
*met(c)	*
*k[b-]	*
*F:	*
!LO:TX:a:t=Sehr mäßig.	!
!LO:TX:a:t=Aus dem Heſſen-Darmſtädtiſchen.	!
{4c	Ach
=1	=1
4f	Schätʒchen,
8f	.
8f	was
4f	hab_ich
8f	dir
8g	ʒu
=2	=2
4a	Lei-
4a	-de_ge-
4a}	-than,
{8fL	daß
8aJ	.
=3	=3
4.cc	du
8a	ver-
8b-L	-ach-
8ddJ	.
8ccL	-teſt
8b-J	.
=4	=4
2a	mich?
4r}	.
{8fL	Ei
8aJ	das
=5	=5
4cc	ha-
8cc	-ben
8cc	die
(4cc	fal-
8dd)	.
8cc	-ſchen
=6	=6
8ccL	Ʒun-
8b-J	.
4b-	-gen_ge-
4b-}	-than,
{8cc	ei
8b-	das
=7	=7
4a	ha-
8a	-ben
8a	die
8a/L	fal-
8cc	.
8b-J	.
8a	-ſchen
=8	=8
8aL	Ʒun-
8gJ	.
8g	-gen
8g	ge-
4g}	-than,
{8cc	die
8b-	be-
=9	=9
4a	-lü-
4a	-gen
4g	mich
4g	und
=10	=10
2f	dich.
4r}	.
==	==
!!!AGN: Liebes - Lied, Vertroestung
!!!ONB: ESAC (Essen Associative Code) Database: ERK1
!!!AMT: simple quadruple
!!!AIN: vox
!!!EED: Helmut Schaffrath
!!!EEV: 1.0
!!!GTL: Liebeslieder [Neuere (aus dem 18. bis 19. Jahrh.) - Liebeslust]
!!!URL-scan: https://rosdok.uni-rostock.de/mcrviewer/recordIdentifier/rosdok_ppn745177662/iview2/phys_0382.iview2?x=-128.77276441889308&y=1868.115480293287&scale=0.5870222003877485&rotation=0&layout=singlePageLayout
!!!ENC: Anna Maria Matuszewska
!!!EEV: 2024/10/12
*-	*-
